!!!OTL: Gaoliang diao
!!!ARE: Asia, China, Shanxi Ziyang
!! I, 84
!!!SCT: C1410
!!!YEM: Copyright 1995, estate of Helmut Schaffrath.
**kern
*ICvox
*Ivox
*M2/4
*k[b-e-]
*B-:
{8g
16g
16b-
8g
8f
=1
4dd
16dd
16cc
16b-
16g
=2
8b-
16b-
16dd
8cc
8b-
=3
4g
8g
16f
16d}
=4
{8b-
16g
16f
8b-
16g
16f
=5
4dd
16dd
16cc
16b-
16g
=6
8dd
16dd
16cc
8b-
8dd
=7
4g
8g
16f
16d}
=8
{8ff
16dd
16cc
8b-
16b-
16cc
=9
4dd
8dd
8cc
=10
8dd
16dd
16cc
8b-
8cc
=11
4g
8f
8g}
=12
{8g
16g
16b-
8g
8f
=13
4dd
8dd
8cc
=14
8gg
16ff
16gg
8b-
8dd
=15
4cc}
{8dd
8cc
=16
8b-
8dd
4cc
=17
8b-
16g
16b-
4cc
=18
16dd
16dd
16cc
16dd
8f
8a
=19
4g}
{16dd
16dd
16cc
16b-
=20
4g
8.f
16g
=21
4b-
8cc
16cc
16b-
=22
8f
8g
[4f
=23
2f]}
==
!!!AGN: Haozi
!!!ONB: ESAC (Essen Associative Code) Database: HUANG
!!!AMT: simple duple
!!!AIN: vox
!!!EED: Helmut Schaffrath
!!!EEV: 1.0
*-
!!!ONB: Tied note syntax fixed by Craig Sapp, 2004/05/03/
